!!!COM: Bach, Johann Sebastian
!!!CDT: 1685/3//-1750/7/28/
!!!OTL@@DE: Was frag' ich nach der Welt
!!!AGN: 4-Part Chorale
!!!SCT: Erk 255
!!!SCT: BWV 64
!!!YEC: Copyright 1994, David Huron
!!!YEC: Changes/Additions 2001 by Craig Stuart Sapp
!!!YEN: United States of America
!!!SMA: 371 Bach Chorales, edited by Ludwig Erk, C.F. Peters
!!!PDT: 1850, 1865
!!!ONB: Harmony and Root analysis done manually
**kern	**kern	**kern	**kern	**root	**harm	**kern
!bass	!tenor	!alto	!soprno	!	!	!
*Iorgan	*Iorgan	*Iorgan	*Iorgan	*Iorgan	*	*Iorgan
*M4/4	*M4/4	*M4/4	*M4/4	*M4/4	*M4/4	*M4/4
*met(C)	*met(C)	*met(C)	*met(C)	*met(C)	*met(C)	*met(C)
*MM60	*MM60	*MM60	*MM60	*MM60	*MM60	*MM60
*k[f#c#]	*k[f#c#]	*k[f#c#]	*k[f#c#]	*k[f#c#]	*k[f#c#]	*k[f#c#]
*D:	*D:	*D:	*D:	*D:	*D:	*D:
4C#	4A	4e	4a	4AA	Vb	4a 4C# 4ee
=1	=1	=1	=1	=1	=1	=1
8D	4A	4d	4f#	4DD	I	4D 4f# 4a
8C#	.	.	.	.	.	.
8D	4A	8f#	4d	4DD	I	4D 4f# 4a
8E	.	8e	.	.	.	.
8F#	4A	4d	4a	4DD	Ib	4d 4F# 4a
8E	.	.	.	.	.	.
8F#	4d	8a	4a	4DD	Ib	4d 4F# 4a
8D	.	8f#	.	.	.	.
=2	=2	=2	=2	=2	=2	=2
2.G;	2.d;	2.g;	2.b;	2.GG;	IV;	2.G; 2.b; 2.dd;
4GG	4G	4d	4b	4GG	IV	4G 4b 4dd
=3	=3	=3	=3	=3	=3	=3
8AA	4.G	8c#	4e	4AA	V7	4A 4cc# 4ee 4gg
8GG	.	8d	.	.	.	.
8AA	.	8c#	4e	4AA	V7	4A 4cc# 4ee 4gg
8BB	8F#	8B	.	.	.	.
8C#	4E	4A	4a	4AA	Vb	4a 4C# 4ee
8BB	.	.	.	.	.	.
8C#	4A	4e	4g	4AA	V7b	4a 4C# 4ee 4gg
8AA	.	.	.	.	.	.
=4	=4	=4	=4	=4	=4	=4
4D	4A	4d	4f#	4DD	I	4D 4f# 4a
4D;	4F#;	4A;	4d;	4DD;	I;	4D; 4f#; 4a;
4r	4r	4r	4r	4r	r	4r
4F#	4A	4d	4a	4DD	Ib	4d 4F# 4a
=5	=5	=5	=5	=5	=5	=5
4G	8G	4d	4b	4GG	IV	4G 4b 4dd
.	8A	.	.	.	.	.
4E	4B	4g	4b	4EE	ii	4E 4g 4b
4A	8c#	4f#	4a	4DD	Ic	4d 4f# 4A
.	8d	.	.	.	.	.
4AA	8d	4e	4g	4AA	V7	4A 4cc# 4ee 4gg
.	8c#	.	.	.	.	.
=6	=6	=6	=6	=6	=6	=6
2.D;	2.d;	2.A;	2.f#;	2.DD;	I;	2.D; 2.f#; 2.a;
4AA	4c#	4c#	4e	4AA	V	4A 4cc# 4ee
=7	=7	=7	=7	=7	=7	=7
8D	4A	4d	4f#	4DD	I	4D 4f# 4a
8C#	.	.	.	.	.	.
8D	4B	4e	4g#	4EE	V7d/V	4e 4g# 4b 4D
8BB	.	.	.	.	.	.
8C#	4.A	4.e	4.a	4.AA	Vb	4.a 4.C# 4.ee
8BB	.	.	.	.	.	.
8C#	.	.	.	.	.	.
8D	8d	8f#	8b	8BB	vib	8b 8D 8ff#
=8	=8	=8	=8	=8	=8	=8
4E	2B	2e	2g#	2EE	V/V	2E 2g# 2b
4EE	.	.	.	.	.	.
4AA;	4c#;	4e;	4a;	4AA;	V;	4A; 4cc#; 4ee;
4AA	4c#	4e	4a	4AA	V	4A 4cc# 4ee
=9	=9	=9	=9	=9	=9	=9
8D	4d	8f#	4a	4DD	I	4D 4f# 4a
8C#	.	8e	.	.	.	.
8D	4d	8f#	4a	4DD	I	4D 4f# 4a
8E	.	8g	.	.	.	.
8F#	4d	8a	4dd	4DD	Ib	4d 4F# 4a
8E	.	8g	.	.	.	.
8F#	4d	8a	4ccn	4DD	I7b	4d 4F# 4a 4cc#
8D	.	8f#	.	.	.	.
=10	=10	=10	=10	=10	=10	=10
2.G;	2.d;	2.g;	2.b;	2.GG;	IV;	2.G; 2.b; 2.dd;
4D#	8B	4f#	4b	4BB	Vb/II	4b 4D# 4ff#
.	8A	.	.	.	.	.
=11	=11	=11	=11	=11	=11	=11
8E	8G#	4e	4b	4EE	II	4E 4g# 4b
8D#	8F#	.	.	.	.	.
8E	8G#	4e	4b	4EE	II	4E 4g# 4b
8F#	8A	.	.	.	.	.
8G#	8B	4e	4ee	4EE	IIb	4e 4G# 4b
8F#	8A	.	.	.	.	.
8G#	8B	4e	4dd	4EE	II7b	4e 4G# 4b 4dd
8E	8G#	.	.	.	.	.
=12	=12	=12	=12	=12	=12	=12
2.A;	2.A;	2.e;	2.cc#	2.AA;	V;	2.A; 2.cc#; 2.ee;
4F#	4d	4d	4a	4DD	Ib	4d 4F# 4a
=13	=13	=13	=13	=13	=13	=13
8Gn	4d	4g	4b	4GG	IV	4G 4b 4dd
8A	.	.	.	.	.	.
8G	4d	4a	4a	4DD	Ib	4d 4F# 4a
8F#	.	.	.	.	.	.
8G	4d	4g	4b	4GG	IV	4G 4b 4dd
8F#	.	.	.	.	.	.
8G	4e	8b	4cc#	4AA#	viioD7c/vi	4a# 4cc# 4E 4gg
8E	.	8a#	.	.	.	.
=14	=14	=14	=14	=14	=14	=14
2.B;	2.f#;	2.b;	2.dd;	2.BB;	vi;	2.B; 2.dd; 2.ff#;
4C#	4e	8a	4a	4AA	Vb	4a 4C# 4ee
.	.	8g	.	.	.	.
=15	=15	=15	=15	=15	=15	=15
8D	4d	4f#	4a	4DD	I	4D 4f# 4a
8E	.	.	.	.	.	.
8F#	4A	8e	8g	4FF#	iii7	4F# 4a 4cc# 4ee
8G	.	8d	8f#	.	.	.
4A	8A	4d	4e	4AA	V	4A 4cc# 4ee
.	8B	.	.	.	.	.
4AA	8A	4c#	4e	4AA	V	4A 4cc# 4ee
.	8G	.	.	.	.	.
=16	=16	=16	=16	=16	=16	=16
2.D;	2.F#;	2.A;	2.d;	2.DD;	I;	2.D; 2.f#; 2.a;
==	==	==	==	==	==	==
*-	*-	*-	*-	*-	*-	*-
